X:1
T:The Swan
T:From the Carnival of the Animals
T:Camille Saint-Saëns
%%score 1 2 3 { 4 | 5 }
L:1/8
M:6/4
K:G
V:1 treble nm="Violin" snm="Vln."
V:2 alto nm="Viola" snm="Vla."
V:3 bass nm="Violoncello" snm="Vlc."
V:4 treble nm="Piano" snm="Pno."
V:5 bass 
V:1
 z12 |!ff! (g2 f2) B2 (e2 d2) G2 | A4- AB c4 z2 | E4 FG ABcdef | b6- b z z2 z2 | %5
 g2 f2 B2 e2 d2 G2 | ^A4- AB ^c6 | F3 ^G^AB ^cdef^g^a |"Bm" d'6- d' z z2 z2 | d'2 b2 g2 e2 f2 g2 | %10
 d4- de f4 z2 | z12 |"C" c4- cd e4 z2 | e2 A2 B2 c4 de | f6 e4 z2 | e2 A2 B2 ^c4 de | =f6 ^f6 | %17
 g2 f2 B2 e2 d2 G2 | A4- AB c4 z2 | E4 FG ABcdef | b12 | b2 a2 e2 g2 f2 c2 | e2 d2 G2 A2 B2 G2 | %23
 B6 c2 d2 B2 | e6 e2 f2 d2 | b12- | b6- b z z4 | z12 | z12 | z12 |] %30
V:2
 z12 | z12 | z12 | C4 DE FGABcd | g6- g z z4 | z12 | z12 | D3 EF_A _Bdef^g^a | b6 b6 | z12 | %10
 A4- Ac d4 z2 | c2 A2 =F2 D2 E2 F2 | E4- E^E G4 z2 | G2 E2 G2 A4 Bc | d6 c4 z2 | G2 E2 G2 A4 AB | %16
 A6 c6 | z12 | z12 | C4 DE FGABcd | g12 | G2 F2 C2 A,2 B,2 C2 | B,2 A,2 B,2 C2 D2 B,2 | %23
 D6 E2 F2 D2 | G,6 C2 D2 D2 | G12- | G6- G z z4 | z12 | z12 | z12 |] %30
V:3
 z12 |!ff! (G2 F2) B,2 (E2 D2) G,2 | A,4- A, B, C4 z2 | E,4 F, G, A, B, C D E F | B6- B z z2 z2 | %5
 G2 F2 B,2 E2 D2 G,2 | ^A,4- A, B, ^C6 | F,3 ^G, ^A, B, ^C D E F ^G ^A | d6- d z z2 z2 | %9
 d2 B2 G2 E2 F2 G2 | D4- D E F4 z2 | c2 A2 =F2 D2 E2 F2 | C4- C D E4 z2 | E2 A,2 B,2 C4 D E | %14
 F6 E4 z2 | E2 A,2 B,2 ^C4 D E | =F6 ^F6 | G2 F2 B,2 E2 D2 G,2 | A,4- A, B, C4 z2 | %19
 E,4 F, G, A, B, C D E F | B12 | B2 A2 E2 G2 F2 C2 | E2 D2 G,2 A,2 B,2 G,2 | B,6 C2 D2 B,2 | %24
 E6 E2 F2 D2 | B12- | B6- B z z4 | z12 | z12 | z12 |] %30
V:4
 B,/D/B/G/ B,/D/B/G/ B,/D/B/G/ B,/D/B/G/ B,/D/B/G/ B,/D/B/G/ | %1
 B,/D/B/G/ B,/D/B/G/ B,/D/B/G/ B,/D/B/G/ B,/D/B/G/ B,/D/B/G/ | %2
 C/E/c/A/ C/E/c/A/ C/E/c/A/ C/E/c/A/ C/E/c/A/ C/E/c/A/ | %3
 C/E/c/A/ C/E/c/A/ C/E/c/A/ C/E/c/A/ C/E/c/A/ C/E/c/A/ | %4
 B,/D/B/G/ B,/D/B/G/ B,/D/B/G/ B,/D/B/G/ B,/D/B/G/ B,/D/B/G/ | %5
 B,/D/B/G/ B,/D/B/G/ B,/D/B/G/ B,/D/B/G/ B,/D/B/G/ B,/D/B/G/ | %6
 ^C/E/^c/^A/ C/E/c/A/ C/E/c/A/ C/E/c/A/ C/E/c/A/ C/E/c/A/ | %7
 B,/D/B/F/ B,/D/B/F/ B,/D/B/F/ ^A,/E/^A/F/ A,/E/A/F/ A,/E/A/F/ | %8
 D/F/B/F/ D/F/B/F/ D/F/B/F/ D/F/B/F/ D/F/B/F/ D/F/B/F/ | %9
 D/G/d/B/ D/G/d/B/ D/G/d/B/ ^C/E/^c/G/ C/E/c/G/ C/E/c/G/ | %10
 C/D/c/G/ C/D/c/G/ C/D/c/G/ C/D/c/F/ C/D/c/F/ C/D/c/F/ | %11
 C/=F/c/A/ C/F/c/A/ C/F/c/A/ B,/D/B/F/ B,/D/B/F/ B,/D/B/F/ | %12
 _B,/C/_B/=F/ B,/C/B/F/ B,/C/B/F/ B,/C/B/F/ B,/C/B/F/ B,/C/B/F/ | %13
 A,/E/A/E/ A,/E/A/E/ A,/B,/A/D/ A,/C/A/E/ A,/C/A/E/ A,/C/A/E/ | %14
 A,/D/A/F/ A,/D/A/F/ A,/D/A/F/ A,/C/A/E/ A,/C/A/E/ A,/C/A/E/ | %15
 A,/B,/A/D/ A,/B,/A/D/ A,/B,/A/D/ A,/^C/A/E/ A,/C/A/E/ A,/C/A/E/ | %16
 A,/D/A/=F/ B,/D/A/F/ C/D/A/F/ C/D/A/^F/ C/D/B/F/ C/D/c/F/ | %17
 B,/D/B/G/ B,/D/B/G/ B,/D/B/G/ B,/D/B/G/ B,/D/B/G/ B,/D/B/G/ | %18
 C/E/c/A/ C/E/c/A/ C/E/c/A/ C/E/c/A/ C/E/c/A/ C/E/c/A/ | %19
 C/E/c/A/ C/E/c/A/ C/E/c/A/ C/F/c/A/ C/F/c/A/ C/F/c/A/ | %20
 B,/D/B/=F/ B,/D/B/F/ B,/D/B/F/ D/^G/d/B/ D/G/d/B/ D/G/d/B/ | %21
 C/E/c/A/ C/E/c/A/ C/E/c/A/ C/F/c/A/ C/F/c/A/ C/F/c/A/ | B,/D/B/G/ B,/D/B/G/ B,/D/B/G/ [A,CG]6 | %23
 B,/D/B/G/ D/G/d/B/ G/B/g/d/ z2 z4 | B,/E/B/G/ E/G/e/B/ G/B/g/e/ [DAc] z z4 | %25
 z2 e/g/e'/b/ d/g/d'/b/ B/e/b/g/ B/d/b/g/ e/g/e'/b/ | %26
 d/g/d'/b/ B/e/b/g/ B/d/b/g/ E/G/e/B/ D/G/d/B/ B,/D/B/G/ | B, z z2 z8 | z12 | z12 |] %30
V:5
!mp! G,,D,G,D,G,,D, G,,D,G,D,G,,D, | G,,D,G,D,G,,D, G,,D,G,D,G,,D, | %2
 G,,E,A,E,G,,E, G,,E,A,E,G,,E, | G,,E,A,E,G,,E, G,,D,A,D,G,,D, | G,,D,G,D,G,,D, G,,D,G,D,G,,D, | %5
 G,,D,G,D,G,,D, G,,D,G,D,G,,D, | G,,E,^A,E,G,,E, G,,E,A,E,G,,E, | F,,D,F,D,F,,D, F,,^C,F,C,F,,C, | %8
 B,,F,B,F,B,,F, B,,F,B,F,B,,F, | B,,D,B,D,B,,D, _B,,D,_B,D,B,,D, | A,,D,A,D,A,,D, D,,D,A,D,D,,D, | %11
 A,,C,A,C,A,,C, _A,,C,_A,C,A,,C, | G,,C,G,C,G,,C, C,,C,G,C,C,,C, | %13
 =F,,A,,=F,A,,F,,A,, E,,A,,E,A,,E,,A,, | D,,A,,D,A,,D,,A,, E,,A,,E,A,,E,,A,, | %15
 =F,,A,,=F,A,,F,,A,, E,,A,,E,A,,E,,A,, | D,,A,,D,A,,D,,A,, C,C,,B,,B,,,A,,A,,, | %17
 G,,D,G,D,G,,D, G,,D,G,D,G,,D, | G,,E,A,E,G,,E, G,,E,A,E,G,,E, | G,,E,A,E,G,,E, G,,D,A,D,G,,D, | %20
 G,,D,G,D,=F,,B,, E,,B,,^G,B,,E,,B,, | A,,E,A,E,A,,E, A,,F,A,F,A,,F, | B,,D,G,D,B,,D, [E,,E,]6 | %23
 D,G,B,G,DB, z4 z2 | [D,,D,]2 z2 z4 z4 | z[K:treble] z bebd eBdBBE | %26
 BD[K:bass]EB,DB, B,E,B,D,G,D, | G,, z z2 z8 | z12 | z12 |] %30

